images/Web-Studio-svg.svg

<svg width="140" height="19" viewBox="0 0 140 19" fill="none" xmlns="http://www.w3.org/2000/svg">
<path d="M7.656 1.008H10.704L12.624 6.648L14.544 1.008H17.616L14.712 8.76L16.872 14.208L21.696 0.959999H25.296L18.36 18H15.576L12.624 10.848L9.672 18H6.888L0 0.959999H3.552L8.4 14.208L10.512 8.76L7.656 1.008ZM31.7347 18.24C30.7267 18.24 29.8147 18.072 28.9987 17.736C28.1827 17.384 27.4867 16.912 26.9107 16.32C26.3347 15.728 25.8867 15.04 25.5667 14.256C25.2627 13.472 25.1107 12.648 25.1107 11.784C25.1107 10.888 25.2627 10.048 25.5667 9.264C25.8707 8.464 26.3107 7.768 26.8867 7.176C27.4627 6.568 28.1587 6.088 28.9747 5.736C29.8067 5.384 30.7347 5.208 31.7587 5.208C32.7827 5.208 33.6947 5.384 34.4948 5.736C35.3108 6.088 35.9987 6.56 36.5587 7.152C37.1347 7.744 37.5667 8.432 37.8547 9.216C38.1587 10 38.3107 10.816 38.3107 11.664C38.3107 11.872 38.3027 12.072 38.2867 12.264C38.2867 12.456 38.2708 12.616 38.2388 12.744H28.5187C28.5667 13.24 28.6867 13.68 28.8787 14.064C29.0707 14.448 29.3187 14.776 29.6227 15.048C29.9267 15.32 30.2707 15.528 30.6547 15.672C31.0387 15.816 31.4387 15.888 31.8547 15.888C32.4947 15.888 33.0947 15.736 33.6547 15.432C34.2307 15.112 34.6227 14.696 34.8307 14.184L37.5908 14.952C37.1268 15.912 36.3828 16.704 35.3587 17.328C34.3507 17.936 33.1427 18.24 31.7347 18.24ZM34.9987 10.656C34.9188 9.712 34.5668 8.96 33.9427 8.4C33.3347 7.824 32.5907 7.536 31.7107 7.536C31.2787 7.536 30.8707 7.616 30.4867 7.776C30.1187 7.92 29.7907 8.128 29.5027 8.4C29.2147 8.672 28.9747 9 28.7827 9.384C28.6067 9.768 28.5027 10.192 28.4707 10.656H34.9987ZM48.1419 18.24C47.1819 18.24 46.3259 18.024 45.5739 17.592C44.8219 17.16 44.2299 16.568 43.7979 15.816V18H40.9899V0.48H44.2059V7.632C44.6539 6.864 45.2379 6.272 45.9579 5.856C46.6939 5.424 47.5499 5.208 48.5259 5.208C49.3419 5.208 50.0859 5.384 50.7579 5.736C51.4299 6.088 52.0059 6.56 52.4859 7.152C52.9819 7.744 53.3579 8.44 53.6139 9.24C53.8859 10.04 54.0219 10.88 54.0219 11.76C54.0219 12.672 53.8699 13.52 53.5659 14.304C53.2779 15.088 52.8699 15.776 52.3419 16.368C51.8139 16.944 51.1899 17.4 50.4699 17.736C49.7499 18.072 48.9739 18.24 48.1419 18.24ZM47.2539 15.504C47.7659 15.504 48.2379 15.408 48.6699 15.216C49.1019 15.008 49.4699 14.736 49.7739 14.4C50.0779 14.064 50.3099 13.672 50.4699 13.224C50.6459 12.776 50.7339 12.296 50.7339 11.784C50.7339 11.272 50.6539 10.784 50.4939 10.32C50.3339 9.856 50.1019 9.448 49.7979 9.096C49.5099 8.744 49.1659 8.464 48.7659 8.256C48.3659 8.048 47.9259 7.944 47.4459 7.944C46.7259 7.944 46.0779 8.184 45.5019 8.664C44.9419 9.128 44.5099 9.704 44.2059 10.392V13.392C44.3179 13.712 44.4779 14 44.6859 14.256C44.9099 14.512 45.1579 14.736 45.4299 14.928C45.7019 15.104 45.9979 15.248 46.3179 15.36C46.6379 15.456 46.9499 15.504 47.2539 15.504Z" fill="#2196F3"/>
<path d="M73.8705 5.424C73.7585 5.312 73.5505 5.16 73.2465 4.968C72.9585 4.776 72.5985 4.592 72.1665 4.416C71.7505 4.224 71.2945 4.064 70.7985 3.936C70.3025 3.808 69.7985 3.744 69.2865 3.744C68.3745 3.744 67.6945 3.912 67.2465 4.248C66.7985 4.584 66.5745 5.056 66.5745 5.664C66.5745 6.016 66.6545 6.312 66.8145 6.552C66.9905 6.776 67.2385 6.976 67.5585 7.152C67.8785 7.328 68.2785 7.488 68.7585 7.632C69.2545 7.776 69.8225 7.928 70.4625 8.088C71.2945 8.312 72.0465 8.552 72.7185 8.808C73.4065 9.064 73.9825 9.384 74.4465 9.768C74.9265 10.152 75.2945 10.616 75.5505 11.16C75.8065 11.688 75.9345 12.344 75.9345 13.128C75.9345 14.04 75.7585 14.824 75.4065 15.48C75.0705 16.12 74.6065 16.64 74.0145 17.04C73.4385 17.44 72.7665 17.736 71.9985 17.928C71.2465 18.104 70.4545 18.192 69.6225 18.192C68.3425 18.192 67.0785 18 65.8305 17.616C64.5825 17.232 63.4625 16.688 62.4705 15.984L63.9345 13.128C64.0785 13.272 64.3345 13.464 64.7025 13.704C65.0865 13.928 65.5345 14.16 66.0465 14.4C66.5585 14.624 67.1265 14.816 67.7505 14.976C68.3745 15.136 69.0145 15.216 69.6705 15.216C71.4945 15.216 72.4065 14.632 72.4065 13.464C72.4065 13.096 72.3025 12.784 72.0945 12.528C71.8865 12.272 71.5905 12.048 71.2065 11.856C70.8225 11.664 70.3585 11.488 69.8145 11.328C69.2705 11.168 68.6625 10.992 67.9905 10.8C67.1745 10.576 66.4625 10.336 65.8545 10.08C65.2625 9.808 64.7665 9.496 64.3665 9.144C63.9665 8.776 63.6625 8.36 63.4545 7.896C63.2625 7.416 63.1665 6.848 63.1665 6.192C63.1665 5.328 63.3265 4.56 63.6465 3.888C63.9665 3.216 64.4065 2.656 64.9665 2.208C65.5425 1.76 66.2065 1.424 66.9585 1.2C67.7105 0.959999 68.5185 0.839999 69.3825 0.839999C70.5825 0.839999 71.6865 1.032 72.6945 1.416C73.7025 1.784 74.5825 2.224 75.3345 2.736L73.8705 5.424ZM86.2406 17.352C85.8086 17.544 85.2806 17.736 84.6566 17.928C84.0326 18.12 83.3766 18.216 82.6886 18.216C82.2406 18.216 81.8166 18.16 81.4166 18.048C81.0326 17.936 80.6886 17.76 80.3846 17.52C80.0966 17.264 79.8646 16.944 79.6886 16.56C79.5126 16.16 79.4246 15.68 79.4246 15.12V7.896H77.7686V5.424H79.4246V1.344H82.6406V5.424H85.2806V7.896H82.6406V14.04C82.6406 14.488 82.7526 14.808 82.9766 15C83.2166 15.176 83.5046 15.264 83.8406 15.264C84.1766 15.264 84.5046 15.208 84.8246 15.096C85.1446 14.984 85.4006 14.888 85.5926 14.808L86.2406 17.352ZM92.4756 18.24C91.1796 18.24 90.1956 17.824 89.5236 16.992C88.8516 16.16 88.5156 14.928 88.5156 13.296V5.424H91.7316V12.6C91.7316 14.536 92.4276 15.504 93.8196 15.504C94.4436 15.504 95.0436 15.32 95.6196 14.952C96.2116 14.568 96.6916 13.992 97.0596 13.224V5.424H100.276V14.304C100.276 14.64 100.332 14.88 100.444 15.024C100.572 15.168 100.772 15.248 101.044 15.264V18C100.724 18.064 100.452 18.104 100.228 18.12C100.02 18.136 99.8276 18.144 99.6516 18.144C99.0756 18.144 98.6036 18.016 98.2356 17.76C97.8836 17.488 97.6756 17.12 97.6116 16.656L97.5396 15.648C96.9796 16.512 96.2596 17.16 95.3796 17.592C94.4996 18.024 93.5316 18.24 92.4756 18.24ZM109.4 18.24C108.536 18.24 107.736 18.072 107 17.736C106.264 17.4 105.632 16.936 105.104 16.344C104.576 15.752 104.16 15.064 103.856 14.28C103.568 13.48 103.424 12.624 103.424 11.712C103.424 10.8 103.56 9.952 103.832 9.168C104.12 8.384 104.512 7.696 105.008 7.104C105.504 6.512 106.096 6.048 106.784 5.712C107.472 5.376 108.224 5.208 109.04 5.208C109.968 5.208 110.8 5.432 111.536 5.88C112.288 6.328 112.872 6.912 113.288 7.632V0.48H116.504V14.304C116.504 14.64 116.56 14.88 116.672 15.024C116.784 15.168 116.976 15.248 117.248 15.264V18C116.688 18.112 116.232 18.168 115.88 18.168C115.304 18.168 114.832 18.024 114.464 17.736C114.096 17.448 113.888 17.072 113.84 16.608L113.768 15.816C113.304 16.616 112.672 17.224 111.872 17.64C111.088 18.04 110.264 18.24 109.4 18.24ZM110.24 15.504C110.544 15.504 110.856 15.456 111.176 15.36C111.496 15.248 111.792 15.096 112.064 14.904C112.336 14.712 112.576 14.488 112.784 14.232C113.008 13.976 113.176 13.696 113.288 13.392V10.392C113.16 10.04 112.976 9.72 112.736 9.432C112.512 9.128 112.248 8.872 111.944 8.664C111.656 8.44 111.344 8.264 111.008 8.136C110.688 8.008 110.368 7.944 110.048 7.944C109.568 7.944 109.12 8.048 108.704 8.256C108.304 8.464 107.96 8.752 107.672 9.12C107.384 9.472 107.16 9.88 107 10.344C106.84 10.808 106.76 11.288 106.76 11.784C106.76 12.312 106.848 12.8 107.024 13.248C107.2 13.696 107.44 14.088 107.744 14.424C108.048 14.76 108.408 15.024 108.824 15.216C109.256 15.408 109.728 15.504 110.24 15.504ZM120.38 18V5.424H123.596V18H120.38ZM120.38 3.672V0.48H123.596V3.672H120.38ZM133.025 18.24C132.001 18.24 131.081 18.064 130.265 17.712C129.449 17.36 128.753 16.888 128.177 16.296C127.617 15.688 127.185 14.992 126.881 14.208C126.577 13.424 126.425 12.6 126.425 11.736C126.425 10.856 126.577 10.024 126.881 9.24C127.185 8.456 127.617 7.768 128.177 7.176C128.753 6.568 129.449 6.088 130.265 5.736C131.081 5.384 132.001 5.208 133.025 5.208C134.049 5.208 134.961 5.384 135.761 5.736C136.577 6.088 137.265 6.568 137.825 7.176C138.401 7.768 138.841 8.456 139.145 9.24C139.449 10.024 139.601 10.856 139.601 11.736C139.601 12.6 139.449 13.424 139.145 14.208C138.841 14.992 138.409 15.688 137.849 16.296C137.289 16.888 136.601 17.36 135.785 17.712C134.969 18.064 134.049 18.24 133.025 18.24ZM129.737 11.736C129.737 12.296 129.817 12.808 129.977 13.272C130.153 13.72 130.385 14.112 130.673 14.448C130.977 14.784 131.329 15.048 131.729 15.24C132.129 15.416 132.561 15.504 133.025 15.504C133.489 15.504 133.921 15.416 134.321 15.24C134.721 15.048 135.065 14.784 135.353 14.448C135.657 14.112 135.889 13.712 136.049 13.248C136.225 12.784 136.313 12.272 136.313 11.712C136.313 11.168 136.225 10.664 136.049 10.2C135.889 9.736 135.657 9.336 135.353 9C135.065 8.664 134.721 8.408 134.321 8.232C133.921 8.04 133.489 7.944 133.025 7.944C132.561 7.944 132.129 8.04 131.729 8.232C131.329 8.424 130.977 8.688 130.673 9.024C130.385 9.36 130.153 9.76 129.977 10.224C129.817 10.688 129.737 11.192 129.737 11.736Z" fill="#212121"/>
</svg>

<svg width="140" height="19" fill="none" xmlns="http://www.w3.org/2000/svg"><path d="M7.656 1.008h3.048l1.92 5.64 1.92-5.64h3.072L14.712 8.76l2.16 5.448L21.696.96h3.6L18.36 18h-2.784l-2.952-7.152L9.672 18H6.888L0 .96h3.552L8.4 14.208l2.112-5.448-2.856-7.752zM31.735 18.24c-1.008 0-1.92-.168-2.736-.504a6.425 6.425 0 01-2.088-1.416 6.393 6.393 0 01-1.344-2.064 6.778 6.778 0 01-.456-2.472c0-.896.152-1.736.456-2.52.304-.8.744-1.496 1.32-2.088a6.244 6.244 0 012.088-1.44c.832-.352 1.76-.528 2.784-.528 1.024 0 1.936.176 2.736.528a6.154 6.154 0 012.064 1.416 5.787 5.787 0 011.296 2.064c.304.784.456 1.6.456 2.448 0 .208-.008.408-.024.6 0 .192-.016.352-.048.48h-9.72c.048.496.168.936.36 1.32a3.24 3.24 0 001.776 1.608 3.39 3.39 0 001.2.216c.64 0 1.24-.152 1.8-.456.576-.32.968-.736 1.176-1.248l2.76.768c-.464.96-1.208 1.752-2.232 2.376-1.008.608-2.216.912-3.624.912zm3.264-7.584c-.08-.944-.432-1.696-1.056-2.256-.608-.576-1.352-.864-2.232-.864-.432 0-.84.08-1.224.24a3.026 3.026 0 00-.984.624c-.288.272-.528.6-.72.984-.176.384-.28.808-.312 1.272h6.528zm13.143 7.584c-.96 0-1.816-.216-2.568-.648a4.731 4.731 0 01-1.776-1.776V18H40.99V.48h3.216v7.152c.448-.768 1.032-1.36 1.752-1.776.736-.432 1.592-.648 2.568-.648.816 0 1.56.176 2.232.528a5.471 5.471 0 011.728 1.416 6.111 6.111 0 011.128 2.088c.272.8.408 1.64.408 2.52 0 .912-.152 1.76-.456 2.544a6.362 6.362 0 01-1.224 2.064 5.893 5.893 0 01-1.872 1.368 5.437 5.437 0 01-2.328.504zm-.888-2.736c.512 0 .984-.096 1.416-.288.432-.208.8-.48 1.104-.816.304-.336.536-.728.696-1.176.176-.448.264-.928.264-1.44 0-.512-.08-1-.24-1.464a3.694 3.694 0 00-.696-1.224 3.27 3.27 0 00-1.032-.84c-.4-.208-.84-.312-1.32-.312-.72 0-1.368.24-1.944.72a4.648 4.648 0 00-1.296 1.728v3c.112.32.272.608.48.864.224.256.472.48.744.672.272.176.568.32.888.432.32.096.632.144.936.144z" fill="#2196F3"/><path d="M73.87 5.424c-.112-.112-.32-.264-.624-.456a6.127 6.127 0 00-1.08-.552 8.074 8.074 0 00-1.367-.48c-.497-.128-1-.192-1.513-.192-.912 0-1.591.168-2.04.504-.447.336-.671.808-.671 1.416 0 .352.08.648.24.888.175.224.424.424.743.6.32.176.72.336 1.2.48.496.144 1.065.296 1.705.456a23.59 23.59 0 012.256.72c.688.256 1.264.576 1.728.96.48.384.847.848 1.103 1.392.257.528.385 1.184.385 1.968 0 .912-.177 1.696-.529 2.352a4.22 4.22 0 01-1.392 1.56c-.575.4-1.248.696-2.015.888-.752.176-1.544.264-2.376.264-1.28 0-2.544-.192-3.793-.576a11.708 11.708 0 01-3.36-1.632l1.465-2.856c.144.144.4.336.767.576.385.224.832.456 1.344.696.512.224 1.08.416 1.704.576a7.7 7.7 0 001.92.24c1.825 0 2.736-.584 2.736-1.752 0-.368-.104-.68-.312-.936-.207-.256-.503-.48-.887-.672a8.5 8.5 0 00-1.392-.528c-.544-.16-1.153-.336-1.825-.528a17.453 17.453 0 01-2.135-.72c-.593-.272-1.089-.584-1.489-.936a3.801 3.801 0 01-.911-1.248c-.192-.48-.288-1.048-.288-1.704 0-.864.16-1.632.48-2.304.32-.672.76-1.232 1.32-1.68A5.998 5.998 0 0166.959 1.2a7.93 7.93 0 012.423-.36c1.2 0 2.304.192 3.313.576 1.008.368 1.888.808 2.64 1.32L73.87 5.424zm12.37 11.928c-.431.192-.96.384-1.583.576a6.654 6.654 0 01-1.968.288c-.448 0-.872-.056-1.272-.168a3.006 3.006 0 01-1.032-.528 2.856 2.856 0 01-.696-.96c-.176-.4-.264-.88-.264-1.44V7.896h-1.656V5.424h1.656v-4.08h3.216v4.08h2.64v2.472h-2.64v6.144c0 .448.112.768.336.96.24.176.528.264.864.264.336 0 .664-.056.984-.168.32-.112.576-.208.768-.288l.648 2.544zm6.236.888c-1.296 0-2.28-.416-2.952-1.248-.672-.832-1.008-2.064-1.008-3.696V5.424h3.216V12.6c0 1.936.696 2.904 2.088 2.904.624 0 1.224-.184 1.8-.552.592-.384 1.072-.96 1.44-1.728v-7.8h3.216v8.88c0 .336.056.576.168.72.128.144.328.224.6.24V18a6.713 6.713 0 01-1.392.144c-.576 0-1.048-.128-1.416-.384a1.617 1.617 0 01-.624-1.104l-.072-1.008c-.56.864-1.28 1.512-2.16 1.944-.88.432-1.848.648-2.904.648zm16.924 0a5.71 5.71 0 01-2.4-.504 5.66 5.66 0 01-1.896-1.392 6.716 6.716 0 01-1.248-2.064 7.525 7.525 0 01-.432-2.568c0-.912.136-1.76.408-2.544a6.87 6.87 0 011.176-2.064 5.365 5.365 0 011.776-1.392 5.071 5.071 0 012.256-.504c.928 0 1.76.224 2.496.672a4.84 4.84 0 011.752 1.752V.48h3.216v13.824c0 .336.056.576.168.72.112.144.304.224.576.24V18c-.56.112-1.016.168-1.368.168-.576 0-1.048-.144-1.416-.432a1.585 1.585 0 01-.624-1.128l-.072-.792a4.622 4.622 0 01-1.896 1.824c-.784.4-1.608.6-2.472.6zm.84-2.736c.304 0 .616-.048.936-.144a3.585 3.585 0 001.608-1.128c.224-.256.392-.536.504-.84v-3a3.193 3.193 0 00-.552-.96 3.279 3.279 0 00-.792-.768c-.288-.224-.6-.4-.936-.528a2.568 2.568 0 00-.96-.192c-.48 0-.928.104-1.344.312a3.14 3.14 0 00-1.032.864c-.288.352-.512.76-.672 1.224-.16.464-.24.944-.24 1.44 0 .528.088 1.016.264 1.464.176.448.416.84.72 1.176.304.336.664.6 1.08.792.432.192.904.288 1.416.288zM120.38 18V5.424h3.216V18h-3.216zm0-14.328V.48h3.216v3.192h-3.216zm12.645 14.568c-1.024 0-1.944-.176-2.76-.528a6.425 6.425 0 01-2.088-1.416 6.545 6.545 0 01-1.296-2.088 6.778 6.778 0 01-.456-2.472c0-.88.152-1.712.456-2.496a6.268 6.268 0 011.296-2.064 6.244 6.244 0 012.088-1.44c.816-.352 1.736-.528 2.76-.528 1.024 0 1.936.176 2.736.528a5.988 5.988 0 012.064 1.44 6.078 6.078 0 011.32 2.064c.304.784.456 1.616.456 2.496 0 .864-.152 1.688-.456 2.472a6.545 6.545 0 01-1.296 2.088 6.155 6.155 0 01-2.064 1.416c-.816.352-1.736.528-2.76.528zm-3.288-6.504c0 .56.08 1.072.24 1.536.176.448.408.84.696 1.176.304.336.656.6 1.056.792.4.176.832.264 1.296.264.464 0 .896-.088 1.296-.264.4-.192.744-.456 1.032-.792.304-.336.536-.736.696-1.2a4.3 4.3 0 00.264-1.536c0-.544-.088-1.048-.264-1.512a3.432 3.432 0 00-.696-1.2 2.862 2.862 0 00-1.032-.768 2.956 2.956 0 00-1.296-.288c-.464 0-.896.096-1.296.288-.4.192-.752.456-1.056.792-.288.336-.52.736-.696 1.2a4.61 4.61 0 00-.24 1.512z" fill="#212121"/></svg>
